X:1
T:Title
%%score { ( 1 3 5 ) | ( 2 4 6 7 ) }
L:1/8
M:4/4
K:F
V:1 treble nm="Grand Piano"
V:3 treble 
V:5 treble 
V:2 bass 
V:4 bass 
V:6 bass 
V:7 bass 
V:1
 z4 z[Q:1/4=100] A[E_A]=A | F4- FF EF/E/ | D4- DD^CD | ^C4- C-[C-F] [C-G][C-F]/[CG]/ | %4
[M:5/8] A-A- A3 |[M:3/8] A[E_A]=A |[M:4/4] F4- FF EF/E/ | D4- DD^CD | E6 z2 | %9
[M:5/8][K:treble] [A,D]-[A,D]- [A,D]3 |[M:3/8] [A,A][^CA]A |[M:4/4] d2 cB A2 z2 | z GGG c2 BA | %13
[M:5/8] G2 z2 A, |[M:3/8] A[^CA]A |[M:4/4] d2 cB A2 z2 | z GGG c2 BA |[M:5/8] G2 z2 A, | %18
[M:3/8] DEF |[M:4/4] E2 z2[K:bass] z E[K:treble]FG | F2 E2- EGAB | A2 GG F2 ED | A4- AAG^F | %23
 G2 z2 z4 |[M:3/4] F2 z2 z2 |[M:4/4] D4[K:bass] E2 z2 |[M:5/8] [F,A,D]-[F,A,D]- [F,A,D]3 |] %27
V:2
 z4 z2 [^C,A,]2 | [D,A,D]6 [^C,E,A,]2 | [D,F,A,]8 | [A,,E,]8 |[M:5/8] [D,F,D]-[D,F,D]- [D,F,D]3 | %5
[M:3/8] z [^C,A,]2 |[M:4/4] [D,A,D]6 [^C,E,A,]2 | [D,F,A,]8 | z4 z[K:treble] AGF | %9
[M:5/8][K:bass] [D,F,]-[D,F,]- [D,F,]3- |[M:3/8] [D,F,] [A,,E,]2 |[M:4/4] [A,,F,]8 | z8 | %13
[M:5/8] z z z2 [D,F,]- |[M:3/8] [D,F,] z z |[M:4/4] [A,,F,]8 | z8 |[M:5/8] z z z2 [D,F,]- | %18
[M:3/8] [D,F,]3 |[M:4/4] [A,,E,G,]4 [A,,D,]4 | [^C,E,A,]8 | [D,F,D]2 [A,,E,]2 [D,F,D]4 | %22
 [A,,G,]6 [D,A,D]2 | z2[K:treble] G4 z2 |[M:3/4][K:bass] z2[K:treble] FA GA | %25
[M:4/4][K:bass] z2[K:treble] GG[K:bass] z2 FE |[M:5/8] D,-D,- D,3 |] %27
V:3
 x8 | x8 | x8 | E6 z2 |[M:5/8] x5 |[M:3/8] x3 |[M:4/4] x8 | x8 | [E,^C]8 |[M:5/8][K:treble] x5 | %10
[M:3/8] x3 |[M:4/4] z4 z2 G2- | G z z2 z4 |[M:5/8] z2 F3 |[M:3/8] x3 |[M:4/4] z4 z2 G2- | %16
 G z z2 z4 |[M:5/8] z2 F3 |[M:3/8] x3 |[M:4/4] z2 D4[K:bass][K:treble] z2 | x8 | z2 ^C2 z4 | %22
 D4 ^C2 z2 | [B,-E]4 B,4 |[M:3/4] [F,D]6 |[M:4/4] B2 z2[K:bass] [G,^C]4 |[M:5/8] x5 |] %27
V:4
 x8 | x8 | x8 | x8 |[M:5/8] x5 |[M:3/8] x3 |[M:4/4] x8 | x8 | A,,8[K:treble] |[M:5/8][K:bass] x5 | %10
[M:3/8] x3 |[M:4/4] x8 | [G,,D,]4 [G,,E,]4- |[M:5/8] [G,,E,]- [G,,E,]3 z |[M:3/8] A, [A,,E,]2 | %15
[M:4/4] x8 | [G,,D,]4 [G,,E,]4- |[M:5/8] [G,,E,]- [G,,E,]3 z |[M:3/8] A, A,2 |[M:4/4] x8 | x8 | %21
 x8 | x8 | z4[K:treble] z GFE |[M:3/4][K:bass] A,,6[K:treble] | %25
[M:4/4][K:bass] [B,,G,]4[K:treble][K:bass] A,,4 |[M:5/8] x5 |] %27
V:5
 x8 | x8 | x8 | x8 |[M:5/8] x5 |[M:3/8] x3 |[M:4/4] x8 | x8 | x8 |[M:5/8][K:treble] x5 | %10
[M:3/8] x3 |[M:4/4] D8 | B,4 C4- |[M:5/8] C- C3 z |[M:3/8] x3 |[M:4/4] D8 | B,4 C4- | %17
[M:5/8] C- C3 z |[M:3/8] x3 |[M:4/4] z4[K:bass] F,4[K:treble] | x8 | x8 | x8 | x8 |[M:3/4] x6 | %25
[M:4/4] x4[K:bass] x4 |[M:5/8] x5 |] %27
V:6
 x8 | x8 | x8 | x8 |[M:5/8] x5 |[M:3/8] x3 |[M:4/4] x8 | x8 | x5[K:treble] x3 |[M:5/8][K:bass] x5 | %10
[M:3/8] x3 |[M:4/4] x8 | x8 |[M:5/8] x5 |[M:3/8] x3 |[M:4/4] x8 | x8 |[M:5/8] x5 |[M:3/8] x3 | %19
[M:4/4] x8 | x8 | x8 | x8 | z4[K:treble] D4 |[M:3/4][K:bass] x2[K:treble] x4 | %25
[M:4/4][K:bass] x2[K:treble] x2[K:bass] x4 |[M:5/8] x5 |] %27
V:7
 x8 | x8 | x8 | x8 |[M:5/8] x5 |[M:3/8] x3 |[M:4/4] x8 | x8 | x5[K:treble] x3 |[M:5/8][K:bass] x5 | %10
[M:3/8] x3 |[M:4/4] x8 | x8 |[M:5/8] x5 |[M:3/8] x3 |[M:4/4] x8 | x8 |[M:5/8] x5 |[M:3/8] x3 | %19
[M:4/4] x8 | x8 | x8 | x8 | G,,8[K:treble] |[M:3/4][K:bass] x2[K:treble] x4 | %25
[M:4/4][K:bass] x2[K:treble] x2[K:bass] x4 |[M:5/8] x5 |] %27

